assets/uswds/img/material-icons/history_toggle_off.svg

<svg xmlns="http://www.w3.org/2000/svg" width="24" height="24" viewBox="0 0 24 24"><path d="m15.1 19.37 1 1.74c-.96.44-2.01.73-3.1.84v-2.02c.74-.09 1.44-.28 2.1-.56zM4.07 13H2.05c.11 1.1.4 2.14.84 3.1l1.74-1c-.28-.66-.47-1.36-.56-2.1zM15.1 4.63l1-1.74c-.96-.44-2-.73-3.1-.84v2.02c.74.09 1.44.28 2.1.56zM19.93 11h2.02c-.11-1.1-.4-2.14-.84-3.1l-1.74 1c.28.66.47 1.36.56 2.1zM8.9 19.37l-1 1.74c.96.44 2.01.73 3.1.84v-2.02c-.74-.09-1.44-.28-2.1-.56zM11 4.07V2.05c-1.1.11-2.14.4-3.1.84l1 1.74c.66-.28 1.36-.47 2.1-.56zm7.36 3.1 1.74-1.01c-.63-.87-1.4-1.64-2.27-2.27l-1.01 1.74c.59.45 1.1.96 1.54 1.54zM4.63 8.9l-1.74-1c-.44.96-.73 2-.84 3.1h2.02c.09-.74.28-1.44.56-2.1zm15.3 4.1c-.09.74-.28 1.44-.56 2.1l1.74 1c.44-.96.73-2.01.84-3.1h-2.02zm-3.1 5.36 1.01 1.74c.87-.63 1.64-1.4 2.27-2.27l-1.74-1.01c-.45.59-.96 1.1-1.54 1.54zM7.17 5.64l-1-1.75c-.88.64-1.64 1.4-2.27 2.28l1.74 1.01a7.7 7.7 0 0 1 1.53-1.54zM5.64 16.83l-1.74 1c.63.87 1.4 1.64 2.27 2.27l1.01-1.74a7.7 7.7 0 0 1-1.54-1.53zM13 7h-2v5.41l4.29 4.29 1.41-1.41-3.7-3.7V7z"/></svg>

<svg xmlns="http://www.w3.org/2000/svg" enable-background="new 0 0 24 24" height="24" viewBox="0 0 24 24" width="24"><g><rect fill="none" height="24" width="24"/><path d="M15.1,19.37l1,1.74c-0.96,0.44-2.01,0.73-3.1,0.84v-2.02C13.74,19.84,14.44,19.65,15.1,19.37z M4.07,13H2.05 c0.11,1.1,0.4,2.14,0.84,3.1l1.74-1C4.35,14.44,4.16,13.74,4.07,13z M15.1,4.63l1-1.74C15.14,2.45,14.1,2.16,13,2.05v2.02 C13.74,4.16,14.44,4.35,15.1,4.63z M19.93,11h2.02c-0.11-1.1-0.4-2.14-0.84-3.1l-1.74,1C19.65,9.56,19.84,10.26,19.93,11z M8.9,19.37l-1,1.74c0.96,0.44,2.01,0.73,3.1,0.84v-2.02C10.26,19.84,9.56,19.65,8.9,19.37z M11,4.07V2.05 c-1.1,0.11-2.14,0.4-3.1,0.84l1,1.74C9.56,4.35,10.26,4.16,11,4.07z M18.36,7.17l1.74-1.01c-0.63-0.87-1.4-1.64-2.27-2.27 l-1.01,1.74C17.41,6.08,17.92,6.59,18.36,7.17z M4.63,8.9l-1.74-1C2.45,8.86,2.16,9.9,2.05,11h2.02C4.16,10.26,4.35,9.56,4.63,8.9z M19.93,13c-0.09,0.74-0.28,1.44-0.56,2.1l1.74,1c0.44-0.96,0.73-2.01,0.84-3.1H19.93z M16.83,18.36l1.01,1.74 c0.87-0.63,1.64-1.4,2.27-2.27l-1.74-1.01C17.92,17.41,17.41,17.92,16.83,18.36z M7.17,5.64L6.17,3.89 C5.29,4.53,4.53,5.29,3.9,6.17l1.74,1.01C6.08,6.59,6.59,6.08,7.17,5.64z M5.64,16.83L3.9,17.83c0.63,0.87,1.4,1.64,2.27,2.27 l1.01-1.74C6.59,17.92,6.08,17.41,5.64,16.83z M13,7h-2v5.41l4.29,4.29l1.41-1.41L13,11.59V7z"/></g></svg>
